X:928
T:Reel 928
M:4/4
K:Dmaj
L:1/8
FG|ADFD ECA,G|ADFD G2FG|ADED ECA,C|DFEC D2FG|ADFD ECA,G|FDFD G2FG|AFGE FDEC|A,B,CE D2FE|D2FD ADFD|AFAF GECE|ADFA GBGE|FDEC D2 (3ABc |dBAA FGAF|EFEF G2FG|AdcB BABd|cAGE D2FG|A2dc A2Bd|AGAB c2cB|A2dc A2ec|fdec d2AB|Addc ABcB|AGFE D2EG|FDFG A2Bd|cAGE D2FG|
